YHN.DEV/Client/yohanapp/src/Images/icons/linkedin.svg

<svg width="25" height="25" xmlns="http://www.w3.org/2000/svg">
 <g>
  <title>background</title>
  <rect x="-1" y="-1" width="27" height="27" id="canvas_background" fill="none"/>
 </g>

 <g>
  <title>Layer 1</title>
  <g id="surface1">
   <path d="m22.65625,0l-20.3125,0c-1.289062,0 -2.34375,1.054688 -2.34375,2.34375l0,20.3125c0,1.289062 1.054688,2.34375 2.34375,2.34375l20.3125,0c1.289062,0 2.34375,-1.054688 2.34375,-2.34375l0,-20.3125c0,-1.289062 -1.054688,-2.34375 -2.34375,-2.34375zm-13.28125,20.3125l-3.125,0l0,-10.9375l3.125,0l0,10.9375zm-1.5625,-12.5c-0.863281,0 -1.5625,-0.699219 -1.5625,-1.5625c0,-0.863281 0.699219,-1.5625 1.5625,-1.5625c0.863281,0 1.5625,0.699219 1.5625,1.5625c0,0.863281 -0.699219,1.5625 -1.5625,1.5625zm12.5,12.5l-3.125,0l0,-6.25c0,-0.863281 -0.699219,-1.5625 -1.5625,-1.5625c-0.863281,0 -1.5625,0.699219 -1.5625,1.5625l0,6.25l-3.125,0l0,-10.9375l3.125,0l0,1.9375c0.644531,-0.882812 1.632812,-1.9375 2.734375,-1.9375c1.945313,0 3.515625,1.75 3.515625,3.90625l0,7.03125zm0,0" fill="#4682b4" fill-rule="evenodd" id="svg_1"/>
  </g>
 </g>
</svg>

<?xml version="1.0" encoding="UTF-8"?>
<svg xmlns="http://www.w3.org/2000/svg" xmlns:xlink="http://www.w3.org/1999/xlink" width="25pt" height="25pt" viewBox="0 0 25 25" version="1.1">
<g id="surface1">
<path style=" stroke:none;fill-rule:evenodd;fill:rgb(0%,0%,0%);fill-opacity:1;" d="M 22.65625 0 L 2.34375 0 C 1.054688 0 0 1.054688 0 2.34375 L 0 22.65625 C 0 23.945312 1.054688 25 2.34375 25 L 22.65625 25 C 23.945312 25 25 23.945312 25 22.65625 L 25 2.34375 C 25 1.054688 23.945312 0 22.65625 0 Z M 9.375 20.3125 L 6.25 20.3125 L 6.25 9.375 L 9.375 9.375 Z M 7.8125 7.8125 C 6.949219 7.8125 6.25 7.113281 6.25 6.25 C 6.25 5.386719 6.949219 4.6875 7.8125 4.6875 C 8.675781 4.6875 9.375 5.386719 9.375 6.25 C 9.375 7.113281 8.675781 7.8125 7.8125 7.8125 Z M 20.3125 20.3125 L 17.1875 20.3125 L 17.1875 14.0625 C 17.1875 13.199219 16.488281 12.5 15.625 12.5 C 14.761719 12.5 14.0625 13.199219 14.0625 14.0625 L 14.0625 20.3125 L 10.9375 20.3125 L 10.9375 9.375 L 14.0625 9.375 L 14.0625 11.3125 C 14.707031 10.429688 15.695312 9.375 16.796875 9.375 C 18.742188 9.375 20.3125 11.125 20.3125 13.28125 Z M 20.3125 20.3125 "/>
</g>
</svg>
